!!!!SEGMENT: Ric2016-Jerusalem_luge.krn
!!!id: Ric2016
!!!AGN: Motet
!!!SCT: Elzinga (1999)
!!!voices: 5
!!!COM: Jean Richafort
!!!OTL: Jerusalem luge
**kern	**text	**kern	**text	**kern	**text	**kern	**text	**kern	**text
*part5	*part5	*part4	*part4	*part3	*part3	*part2	*part2	*part1	*part1
*staff5	*staff5	*staff4	*staff4	*staff3	*staff3	*staff2	*staff2	*staff1	*staff1
*I"Bassus	*	*I"Tenor II	*	*I"Tenor I	*	*I"Altus	*	*I"Superius	*
*I'B	*	*I'T. II	*	*I'T. I	*	*I'A	*	*I'S	*
*clefF4	*	*clefF4	*	*clefGv2	*	*clefGv2	*	*clefG2	*
*k[b-]	*	*k[b-]	*	*k[b-]	*	*k[b-]	*	*k[b-]	*
*F:	*	*F:	*	*F:	*	*F:	*	*F:	*
*M2/1	*	*M2/1	*	*M2/1	*	*M2/1	*	*M2/1	*
*met(C|)	*	*met(C|)	*	*met(C|)	*	*met(C|)	*	*met(C|)	*
!!section: Prima pars: Jerusalem luge
!!!OMD: Prima pars: Jerusalem luge
=1	=1	=1	=1	=1	=1	=1	=1	=1	=1
0r	.	0r	.	0F	Je-	0r	.	0r	.
=2	=2	=2	=2	=2	=2	=2	=2	=2	=2
0C	Je-	0r	.	1G	-ru-	0r	.	0r	.
.	.	.	.	1A	-sa-	.	.	.	.
=3	=3	=3	=3	=3	=3	=3	=3	=3	=3
1D	-ru-	0r	.	0B-y	-lem	0r	.	0r	.
1E	-sa-	.	.	.	.	.	.	.	.
=4	=4	=4	=4	=4	=4	=4	=4	=4	=4
1.F	-lem	0r	.	1.A	lu-	0c	Je-	0r	.
2E	.	.	.	2G	.	.	.	.	.
=5	=5	=5	=5	=5	=5	=5	=5	=5	=5
1D	.	0r	.	2A	.	1d	-ru-	0r	.
.	.	.	.	2B-y	.	.	.	.	.
1C	.	.	.	[1c	.	1e	-sa-	.	.
=6	=6	=6	=6	=6	=6	=6	=6	=6	=6
0D	lu-	0F	Je-	2c]	.	0f	-lem	0r	.
.	.	.	.	4Bni	.	.	.	.	.
.	.	.	.	4A	.	.	.	.	.
.	.	.	.	2.Bni	.	.	.	.	.
.	.	.	.	4A	.	.	.	.	.
=7	=7	=7	=7	=7	=7	=7	=7	=7	=7
0C	-ge,	1G	-ru-	0c	-ge,	0e	lu-	0r	.
.	.	1A	-sa-	.	.	.	.	.	.
=8	=8	=8	=8	=8	=8	=8	=8	=8	=8
0r	.	1.B-y	-lem	0r	.	1.d	-ge,	0f	Je-
.	.	2A	.	.	.	2c	Je-	.	.
=9	=9	=9	=9	=9	=9	=9	=9	=9	=9
0r	.	1G	.	1B-y	Je-	2d	-ru-	1g	-ru-
.	.	.	.	.	.	2e	-sa-	.	.
.	.	1F	.	2c	-ru-	[1f	-lem	1a	-sa-
.	.	.	.	[2d	-sa-	.	.	.	.
=10	=10	=10	=10	=10	=10	=10	=10	=10	=10
0r	.	0G	lu-	4d]	.	2f]	.	0b-y	-lem
.	.	.	.	4c	.	.	.	.	.
.	.	.	.	4B-y	.	4e	.	.	.
.	.	.	.	4A	.	4d	.	.	.
.	.	.	.	2.B-y	.	2.e	.	.	.
.	.	.	.	4c	.	4d	.	.	.
=11	=11	=11	=11	=11	=11	=11	=11	=11	=11
1.D	Je-	0F	-ge,	4d	.	1.f	lu-	1.a	lu-
.	.	.	.	4e-i	.	.	.	.	.
.	.	.	.	1d	.	.	.	.	.
2E	.	.	.	4c	.	4e	-ge,	2g	.
.	.	.	.	4B-y	.	4d	.	.	.
=12	=12	=12	=12	=12	=12	=12	=12	=12	=12
2F	-ru-	0r	.	2A	.	2c	Je-	2a	.
2G	-sa-	.	.	2G	.	2g	-ru-	2b-y	.
1A	-lem	.	.	1c	-lem	2e	-sa-	[1cc	.
.	.	.	.	.	.	2f	-lem	.	.
=13	=13	=13	=13	=13	=13	=13	=13	=13	=13
0G	lu-	1r	.	0d	lu-	0g	lu-	2cc]	.
.	.	.	.	.	.	.	.	4bni	.
.	.	.	.	.	.	.	.	4a	.
.	.	2r	.	.	.	.	.	2.bni	.
.	.	2G	et	.	.	.	.	.	.
.	.	.	.	.	.	.	.	4a	.
=14	=14	=14	=14	=14	=14	=14	=14	=14	=14
1C	-ge,	2G	e-	0c	-ge,	0e	-ge,	0cc	-ge,
.	.	2G	-xu-	.	.	.	.	.	.
2r	.	2A	-e	.	.	.	.	.	.
2C	et	2G	te	.	.	.	.	.	.
=15	=15	=15	=15	=15	=15	=15	=15	=15	=15
2C	e-	2c	ve-	0r	.	1r	.	0r	.
2C	-xu-	2c	-sti-	.	.	.	.	.	.
2D	-e	2B-y	-bus	.	.	2r	.	.	.
2C	te	2c	ju-	.	.	2c	et	.	.
=16	=16	=16	=16	=16	=16	=16	=16	=16	=16
1.F	ve-	1.A	-cun-	0r	.	2c	e-	0r	.
.	.	.	.	.	.	2c	-xu-	.	.
.	.	.	.	.	.	2d	-e	.	.
2E	-sti-	2G	-di-	.	.	2c	te	.	.
=17	=17	=17	=17	=17	=17	=17	=17	=17	=17
1D	-bus	2A	-ta-	1r	.	1.f	ve-	0r	.
.	.	2B-y	.	.	.	.	.	.	.
1C	ju-	2c	-tis,	2r	.	.	.	.	.
.	.	2C	ju-	2G	et	2e	.	.	.
=18	=18	=18	=18	=18	=18	=18	=18	=18	=18
1BB-y	-cun-	2.D	-cun-	2G	e-	1d	-sti-	1r	.
.	.	.	.	2G	-xu-	.	.	.	.
.	.	4E	.	.	.	.	.	.	.
2AA	-di-	2F	-di-	2A	-e	[1c	-bus	2r	.
[2C	-ta-	2E	-ta	2G	te	.	.	2g	et
=19	=19	=19	=19	=19	=19	=19	=19	=19	=19
4C]	.	1C	tis,	2c	ve-	0c_	.	2g	e-
4D	.	.	.	.	.	.	.	.	.
2E	.	.	.	2c	-sti-	.	.	2g	-xu-
2F	-tis,	1r	.	2A	-bus	.	.	2a	-e
2C	et	.	.	[2c	ju-	.	.	2g	te
=20	=20	=20	=20	=20	=20	=20	=20	=20	=20
2C	e-	0r	.	4c]	.	1c]	.	2cc	ve-
.	.	.	.	4B-y	.	.	.	.	.
2C	-xu-	.	.	4A	.	.	.	2cc	-sti-
.	.	.	.	4G	.	.	.	.	.
2D	-e	.	.	2F	.	2r	.	2a	-bus,
2C	te	.	.	2G	.	2c	et	[2cc	ve-
=21	=21	=21	=21	=21	=21	=21	=21	=21	=21
2F	ve-	1r	.	1.A	-cun-	2c	e-	4cc]	.
.	.	.	.	.	.	.	.	4b-y	.
2F	-sti-	.	.	.	.	2c	-xu-	4a	-sti-
.	.	.	.	.	.	.	.	4g	.
2D	-bus,	2r	.	.	.	2d	-e	[1f	-bus
[2F	ve-	2F	et	2A	-di-	2c	te	.	.
=22	=22	=22	=22	=22	=22	=22	=22	=22	=22
4F]	.	2F	e-	1A	-ta-	2f	ve-	1f]	.
4E	.	.	.	.	.	.	.	.	.
4D	-sti-	2F	-xu-	.	.	2f	-sti-	.	.
4C	.	.	.	.	.	.	.	.	.
[1BB-y	-bus	2G	-e	1B-y	-tis,	2d	-bus,	1r	.
.	.	2F	te	.	.	[2f	ju-	.	.
=23	=23	=23	=23	=23	=23	=23	=23	=23	=23
1BB-]	.	2B-y	ve-	2F	ju-	4f]	.	0r	.
.	.	.	.	.	.	4e	.	.	.
.	.	2B-y	-sti-	1B-y	-cun-	4d	.	.	.
.	.	.	.	.	.	4c	.	.	.
1r	.	2G	-bus	.	.	4B-y	.	.	.
.	.	.	.	.	.	4c	.	.	.
.	.	[2B-y	ju-	2G	-di-	[2d	.	.	.
=24	=24	=24	=24	=24	=24	=24	=24	=24	=24
1BB-y	ju-	4B-]	.	1d	-ta-	4d]	.	0r	.
.	.	4A	.	.	.	4G	.	.	.
.	.	4G	.	.	.	2.g	-cun-	.	.
.	.	4F	.	.	.	.	.	.	.
2C	-cun-	2E-i	-cun-	2c	.	.	.	.	.
.	.	.	.	.	.	4f	-di-	.	.
2D	-di-	2F	-di-	2Bni	.	[2f	-ta-	.	.
=25	=25	=25	=25	=25	=25	=25	=25	=25	=25
0C	-ta-	0G	-ta-	0c	-tis:	2f]	.	1r	.
.	.	.	.	.	.	4e	.	.	.
.	.	.	.	.	.	4d	.	.	.
.	.	.	.	.	.	2.e	.	1g	in-
.	.	.	.	.	.	4d	.	.	.
=26	=26	=26	=26	=26	=26	=26	=26	=26	=26
0FF	-tis:	0F	-tis:	1r	.	1f	-tis:	2a	-du-
.	.	.	.	.	.	.	.	2f	-e-
.	.	.	.	1c	in-	2r	.	1cc	-re
.	.	.	.	.	.	[2f	in-	.	.
=27	=27	=27	=27	=27	=27	=27	=27	=27	=27
1r	.	0r	.	2d	-du-	2f]	.	2a	ci-
.	.	.	.	2B-y	-e-	1g	-du-	2b-y	.
1C	in	.	.	2.c	-re	.	.	1g	-ne-
.	.	.	.	.	.	2e	-e-	.	.
.	.	.	.	4B-y	.	.	.	.	.
=28	=28	=28	=28	=28	=28	=28	=28	=28	=28
2D	du-	1r	.	2A	.	2f	-re	1f	-re
2BB-y	-e-	.	.	2B-y	.	2d	.	.	.
2C	-re	1G	in-	2G	.	2e	ci-	1r	.
2C	ci-	.	.	[2c	ci-	2e	-ne-	.	.
=29	=29	=29	=29	=29	=29	=29	=29	=29	=29
2AA	.	2A	-du-	2c]	.	2c	-re	1r	.
2BB-y	-ne-	2F	-e-	1d	-ni-	1f	et	.	.
1GG	-re,	2G	-re	.	.	.	.	1b-y	et
.	.	2G	ci-	2B-y	.	2d	ci-	.	.
=30	=30	=30	=30	=30	=30	=30	=30	=30	=30
0r	.	2E	.	1c	-re	2e	-li-	2g	ci-
.	.	2F	-ne-	.	.	1c	.	1a	-li-
.	.	1D	-re	1F	et	.	.	.	.
.	.	.	.	.	.	2B-y	-ci-	4g	-ci-
.	.	.	.	.	.	.	.	4f	.
=31	=31	=31	=31	=31	=31	=31	=31	=31	=31
1.C	et	0r	.	2G	ci-	2.c	-o,	0e	-o,
.	.	.	.	2A	.	.	.	.	.
.	.	.	.	.	.	4d	.	.	.
.	.	.	.	2G	.	4e	.	.	.
.	.	.	.	.	.	4f	.	.	.
2AA	ci-	.	.	[2A	-li-	[2e	ci-	.	.
=32	=32	=32	=32	=32	=32	=32	=32	=32	=32
2C	-li-	1A	qui-	4A]	.	4e]	.	1r	.
.	.	.	.	4G	.	4d	.	.	.
2D	.	.	.	2F	.	1d	-li-	.	.
1AA	-ci-	2A	-a	1E	-ci-	.	.	1e	qui-
.	.	2A	in	.	.	2c#i	-ci-	.	.
=33	=33	=33	=33	=33	=33	=33	=33	=33	=33
0D	-o,	2F	te	0D	-o,	0d	-o,	1.f	-a
.	.	4D	.	.	.	.	.	.	.
.	.	4E	.	.	.	.	.	.	.
.	.	4F	.	.	.	.	.	.	.
.	.	4G	.	.	.	.	.	.	.
.	.	4A	.	.	.	.	.	2f	in
.	.	4B-y	.	.	.	.	.	.	.
=34	=34	=34	=34	=34	=34	=34	=34	=34	=34
1r	.	2c	.	1r	.	0r	.	2e	te
.	.	1d	oc-	.	.	.	.	2d	.
2r	.	.	.	1A	qui-	.	.	2e	oc-
2AA	qui-	2c#i	-ci-	.	.	.	.	2e	-ci-
=35	=35	=35	=35	=35	=35	=35	=35	=35	=35
2BB-y	-a	1d	-sus	2F	-a	0r	.	[0d	-sus
4GG	in	.	.	1B-y	in	.	.	.	.
4AA	.	.	.	.	.	.	.	.	.
4BB-y	.	1D	.	.	.	.	.	.	.
4C	.	.	.	.	.	.	.	.	.
4D	.	.	.	2B-y	te	.	.	.	.
4E	.	.	.	.	.	.	.	.	.
=36	=36	=36	=36	=36	=36	=36	=36	=36	=36
2F	te	0D	est,	2A	oc-	1r	.	0d_	.
2.G	oc-	.	.	2G	-ci-	.	.	.	.
.	.	.	.	1A	-sus	2r	.	.	.
4F#i	.	.	.	.	.	.	.	.	.
2F#i	-ci-	.	.	.	.	2A	qui-	.	.
=37	=37	=37	=37	=37	=37	=37	=37	=37	=37
0G	-sus	2r	.	0G	est,	2B-y	-a	0d_	.
.	.	2B-y	qui-	.	.	4G	in	.	.
.	.	.	.	.	.	4A	.	.	.
.	.	2G	-a	.	.	4B-y	te	.	.
.	.	.	.	.	.	4c	.	.	.
.	.	2B-y	in	.	.	4d	.	.	.
.	.	.	.	.	.	4e	.	.	.
=38	=38	=38	=38	=38	=38	=38	=38	=38	=38
0D	est,	2A	te	1r	.	2f	oc-	0d]	.
.	.	2G	oc-	.	.	1g	-ci-	.	.
.	.	2A	-ci-	2r	.	.	.	.	.
.	.	2A	-sus	2F	qui-	2f#i	-sus	.	.
=39	=39	=39	=39	=39	=39	=39	=39	=39	=39
0r	.	1.G	est,	2B-y	-a	1g	est	0d	est,
.	.	.	.	2G	in	.	.	.	.
.	.	.	.	2.B-y	te	2r	.	.	.
.	.	2B-y	oc-	.	.	2d	qui-	.	.
.	.	.	.	4A	oc-	.	.	.	.
=40	=40	=40	=40	=40	=40	=40	=40	=40	=40
1r	.	2A	-ci-	2F	-ci-	2f	-a	1r	.
.	.	2G	-sus	2G	-sus	2d	in	.	.
2r	.	1F	est,	1D	est,	2.f	te	2r	.
2D	qui-	.	.	.	.	.	.	2a	qui-
.	.	.	.	.	.	8eL	.	.	.
.	.	.	.	.	.	8dJ	.	.	.
=41	=41	=41	=41	=41	=41	=41	=41	=41	=41
2A	-a	2r	.	0r	.	2c	.	2cc	-a
2D	in	2.F	oc-	.	.	2d	oc-	2a	in
2.A	te	.	.	.	.	4A	-ci-	2.cc	te
.	.	4G	.	.	.	4B-y	.	.	.
.	.	4A	.	.	.	4c	.	.	.
4G	oc-	4B-y	.	.	.	4d	.	4b-y	.
=42	=42	=42	=42	=42	=42	=42	=42	=42	=42
2E	-ci-	2c	.	0r	.	2e	.	2g	.
2F	-sus	2A	.	.	.	4c	.	2a	oc-
.	.	.	.	.	.	4d	.	.	.
1C	est,	2.c	-ci-	.	.	4e	.	2.e	-ci-
.	.	.	.	.	.	4f	.	.	.
.	.	.	.	.	.	[2g	.	.	.
.	.	4B-y	.	.	.	.	.	4f	.
=43	=43	=43	=43	=43	=43	=43	=43	=43	=43
2r	.	2G	.	1r	.	4g]	.	2g	-sus
.	.	.	.	.	.	4f	.	.	.
2C	qui-	2.A	-sus	.	.	4e	.	2c	est,
.	.	.	.	.	.	4d	.	.	.
2F	-a	.	.	1A	qui-	2c	.	2r	.
.	.	4G	.	.	.	.	.	.	.
2D	in	4F	.	.	.	2d	-sus	[2f	oc-
.	.	4E	.	.	.	.	.	.	.
=44	=44	=44	=44	=44	=44	=44	=44	=44	=44
2.F	te	1D	est	2A	-a	2A	est,	4f]	.
.	.	.	.	.	.	.	.	4g	.
.	.	.	.	2A	in	2f	qui-	4a	.
4E	.	.	.	.	.	.	.	4b-y	.
2C	.	2r	.	2G	te	2e	-a	2cc	-ci-
2D	oc-	[2A	Sal-	2F	oc-	2d	in	2a	-sus
=45	=45	=45	=45	=45	=45	=45	=45	=45	=45
2.AA	-ci-	2A]	.	2.E	-ci-	2c	te	1cc	est
.	.	2A	-va-	.	.	1e	oc-	.	.
4BB-y	.	.	.	4D	.	.	.	.	.
2C	.	2G	-tor	2E	.	.	.	1r	.
[2D	.	[2B-y	Is-	[2F	.	[2d	-ci-	.	.
=46	=46	=46	=46	=46	=46	=46	=46	=46	=46
4D]	.	4B-]	.	4F]	.	4d]	.	0r	.
4C	.	4A	.	4E	.	4e	.	.	.
4BB-y	.	1A	-ra-	4D	.	1f	.	.	.
4AA	.	.	.	4C	.	.	.	.	.
1BB-y	-sus	.	.	2.D	.	.	.	.	.
.	.	2G	.	.	.	4e	-sus	.	.
.	.	.	.	4E	.	4d	.	.	.
=47	=47	=47	=47	=47	=47	=47	=47	=47	=47
0AA	est	1A	-el,	2F	-sus	1c	est	1.cc	Sal-
.	.	.	.	4E	.	.	.	.	.
.	.	.	.	4D	.	.	.	.	.
.	.	1r	.	1E	est	2r	.	.	.
.	.	.	.	.	.	2c	Sal-	2cc	-va-
=48	=48	=48	=48	=48	=48	=48	=48	=48	=48
0r	.	1G	Sal-	1r	.	2d	-va-	1b-y	-tor
.	.	.	.	.	.	2B-y	-tor	.	.
.	.	2A	-va-	1D	Sal-	1f	Is-	1a	Is-
.	.	2F	-tor	.	.	.	.	.	.
=49	=49	=49	=49	=49	=49	=49	=49	=49	=49
0r	.	1c	Is-	2E	-va-	1e	-ra-	2.g	-ra-
.	.	.	.	2C	.	.	.	.	.
.	.	.	.	.	.	.	.	4a	.
.	.	2d	-ra-	1G	-tor	2d	-el,	4b-y	.
.	.	.	.	.	.	.	.	4cc	.
.	.	2B-y	.	.	.	[2g	Sal-	[2dd	.
=50	=50	=50	=50	=50	=50	=50	=50	=50	=50
1r	.	1c	-el,	1A	Is-	2g]	.	4dd]	.
.	.	.	.	.	.	.	.	4cc	.
.	.	.	.	.	.	2f	.	1cc	-el
1GG	Sal-	1d	.	1G	-ra-	2.g	-va-	.	.
.	.	.	.	.	.	.	.	2bni	.
.	.	.	.	.	.	4f	.	.	.
=51	=51	=51	=51	=51	=51	=51	=51	=51	=51
2AA	-va-	2r	.	0C	-el,	4e	.	2.cc	Sal-
.	.	.	.	.	.	4d	.	.	.
2FF	-tor	2c	Sal-	.	.	2f	.	.	.
.	.	.	.	.	.	.	.	4b-X	.
1C	Is-	2.c	-va-	.	.	2e	-tor	2a	-va-
.	.	.	.	.	.	[2c	Is-	[2g	-tor
.	.	4B-y	-tor	.	.	.	.	.	.
=52	=52	=52	=52	=52	=52	=52	=52	=52	=52
1D	-ra-	2A	Is-	1r	.	2c]	.	2g]	.
.	.	4G	.	.	.	2Bni	-ra-	1f	Is-
.	.	4F	.	.	.	.	.	.	.
1C	-el,	1G	-ra-	2r	.	1c	-el,	.	.
.	.	.	.	2G	Sal-	.	.	2e	-ra-
=53	=53	=53	=53	=53	=53	=53	=53	=53	=53
2FF	Sal-	[0Fl	-el.	2A	-va-	2r	.	[0fl	-el.
2.F	-va-	.	.	2F	.	2.A	Sal-	.	.
.	.	.	.	2c	-tor	.	.	.	.
4E	.	.	.	.	.	4G	.	.	.
4D	.	.	.	[2d	Is-	2A	-va-	.	.
4C	.	.	.	.	.	.	.	.	.
=54	=54	=54	=54	=54	=54	=54	=54	=54	=54
2BB-y	-tor	0F_	.	2d]	.	2B-y	-tor	0f_	.
2AA	Is-	.	.	2c	.	2c	Is-	.	.
1BB-y	-ra-	.	.	1B-y	-ra-	1d	-ra-	.	.
=	=	=	=	=	=	=	=	=	=
00FF	-el.	00F]	.	00A	-el.	00c	-el.	00f]	.
=||	=||	=||	=||	=||	=||	=||	=||	=||	=||
*M2/1	*	*M2/1	*	*M2/1	*	*M2/1	*	*M2/1	*
*met(C|)	*	*met(C|)	*	*met(C|)	*	*met(C|)	*	*met(C|)	*
!!section: Secunda pars: Deduc quasi torrentem
!!!OMD: Secunda pars: Deduc quasi torrentem
!	!	!	!	!	!	!	!	!LO:TX:a:t=Secunda Pars&colon; Deduc quasi torrentem	!
0F	De-	0F	De-	0r	.	0r	.	0r	.
=55	=55	=55	=55	=55	=55	=55	=55	=55	=55
1D	-duc	1B-y	-duc	0r	.	0r	.	0r	.
1E	qua-	1B-y	qua-	.	.	.	.	.	.
=56	=56	=56	=56	=56	=56	=56	=56	=56	=56
1.F	-si	1.A	-si	0r	.	0c	De-	0r	.
2E	tor-	2c	tor-	.	.	.	.	.	.
=57	=57	=57	=57	=57	=57	=57	=57	=57	=57
2D	-ren-	2B-y	-ren-	0r	.	1d	-duc	0r	.
2C	-tem	2A	-tem	.	.	.	.	.	.
2BB-y	la-	2A	la-	.	.	1d	qua-	.	.
2BB-y	-cri-	2G	-cri-	.	.	.	.	.	.
=58	=58	=58	=58	=58	=58	=58	=58	=58	=58
2.AA	-mas,	2A	-mas,	0r	.	1.c	-si	0r	.
.	.	2.c	la-	.	.	.	.	.	.
4BB-y	.	.	.	.	.	.	.	.	.
2C	.	.	.	.	.	.	.	.	.
.	.	4B-y	.	.	.	.	.	.	.
2D	.	[2A	.	.	.	2f	tor-	.	.
=59	=59	=59	=59	=59	=59	=59	=59	=59	=59
2C	la-	4A]	.	1A	De-	2e	-ren-	0r	.
.	.	4G	.	.	.	.	.	.	.
2D	-cri-	2F	.	.	.	2d	-tem	.	.
1AA	-mas,	1E	-cri-	2A	-duc	2d	la-	.	.
.	.	.	.	2A	qua-	2c#i	-cri-	.	.
=60	=60	=60	=60	=60	=60	=60	=60	=60	=60
2r	.	[0D	-mas,	1F	-si	0d	-mas,	0f	De-
2BB-y	de-	.	.	.	.	.	.	.	.
2BB-y	-duc	.	.	1B-y	tor-	.	.	.	.
2BB-y	qua-	.	.	.	.	.	.	.	.
=61	=61	=61	=61	=61	=61	=61	=61	=61	=61
2.GG	-si	0D]	.	2.B-y	-ren-	1r	.	1b-y	-duc
4GG	tor-	.	.	4A	-tem	.	.	.	.
2GG	-ren-	.	.	2G	la-	1d	de-	1b-y	qua-
2GG	-tem	.	.	2G	-cri-	.	.	.	.
=62	=62	=62	=62	=62	=62	=62	=62	=62	=62
2D	la-	1r	.	1F	-mas,	2f	-duc	1.a	-si
2D	-cri-	.	.	.	.	2f	qua-	.	.
1AA	-mas	1A	tor-	2r	.	2.c	-si	.	.
.	.	.	.	2F	tor-	.	.	2cc	tor-
.	.	.	.	.	.	4d	tor-	.	.
=63	=63	=63	=63	=63	=63	=63	=63	=63	=63
0r	.	2G	-ren-	2G	-re-	1e	-ren-	2b-y	-ren-
.	.	2F	-tem	2A	-tem	.	.	2a	-tem
.	.	2G	la-	2B-y	la-	[1d	-tem	2a	la-
.	.	2G	-cri-	2B-y	-cri-	.	.	2g	-cri-
=64	=64	=64	=64	=64	=64	=64	=64	=64	=64
2r	.	1D	-mas	1A	-mas	2d]	.	1a	-mas
1D	per	.	.	.	.	2f	la-	.	.
.	.	2r	.	1r	.	2.f	-cri-	1a	per
2D	di-	[2A	per	.	.	.	.	.	.
.	.	.	.	.	.	8eL	.	.	.
.	.	.	.	.	.	8dJ	.	.	.
=65	=65	=65	=65	=65	=65	=65	=65	=65	=65
2AA	-em	2A]	.	1c	per	0e	-mas	2a	di-
2AA	et	2A	di-	.	.	.	.	2e	-em
1C	no-	2E	-em	2c	di-	.	.	2e	et
.	.	2E	et	2G	-em	.	.	[2g	no-
=66	=66	=66	=66	=66	=66	=66	=66	=66	=66
1GG	-ctem,	2.G	no-	2G	et	2r	.	4g]	.
.	.	.	.	.	.	.	.	4f	.
.	.	.	.	1B-y	no-	1d	per	4d	.
.	.	4F	.	.	.	.	.	4e	.
1r	.	4D	.	.	.	.	.	4f	.
.	.	4E	.	.	.	.	.	4g	.
.	.	[2F	.	4A	.	2d	di-	[2a	.
.	.	.	.	4G	.	.	.	.	.
=67	=67	=67	=67	=67	=67	=67	=67	=67	=67
0r	.	2F]	.	1F	.	2A	-em	2a]	.
.	.	4E	.	.	.	2A	et	4g	.
.	.	4D	.	.	.	.	.	4f	.
.	.	1C	-ctem,	2G	-ctem,	2.c	no-	1e	.
.	.	.	.	2A	per	.	.	.	.
.	.	.	.	.	.	4B-y	.	.	.
=68	=68	=68	=68	=68	=68	=68	=68	=68	=68
2r	.	0r	.	1.B-y	di-	4G	.	0d	-ctem,
.	.	.	.	.	.	4A	.	.	.
1G	per	.	.	.	.	4B-y	.	.	.
.	.	.	.	.	.	4c	.	.	.
.	.	.	.	.	.	4d	.	.	.
.	.	.	.	.	.	4e	.	.	.
2F	di-	.	.	2A	-em	[2f	.	.	.
=69	=69	=69	=69	=69	=69	=69	=69	=69	=69
2D	-em	0r	.	2B-y	et	4f]	.	1r	.
.	.	.	.	.	.	4e	.	.	.
2F	et	.	.	1A	no-	1d	.	.	.
1E	no-	.	.	.	.	.	.	2r	.
.	.	.	.	2G	.	2c#i	.	[2g	per
=70	=70	=70	=70	=70	=70	=70	=70	=70	=70
1D	-ctem,	0r	.	2A	-ctem,	0d	-ctem,	2g]	.
.	.	.	.	2.B-y	no-	.	.	2f	di-
2r	.	.	.	.	.	.	.	2d	-em
.	.	.	.	8AL	.	.	.	.	.
.	.	.	.	8GJ	.	.	.	.	.
[2D	per	.	.	4F	.	.	.	2f	et
.	.	.	.	4G	.	.	.	.	.
=71	=71	=71	=71	=71	=71	=71	=71	=71	=71
2D]	.	2r	.	4A	.	0r	.	1e	no-
.	.	.	.	4B-y	.	.	.	.	.
2C	di-	1G	per	4c	.	.	.	.	.
.	.	.	.	4A	.	.	.	.	.
2BB-y	-em	.	.	2.B-y	.	.	.	2d	.
[2D	et	2F	di-	.	.	.	.	[2f	.
.	.	.	.	8AL	.	.	.	.	.
.	.	.	.	8GJ	.	.	.	.	.
=72	=72	=72	=72	=72	=72	=72	=72	=72	=72
4D]	.	2D	-em	2.F	.	1r	.	4f]	.
4C	.	.	.	.	.	.	.	4e	.
2D	no-	2F	et	.	.	.	.	1d	.
.	.	.	.	4G	.	.	.	.	.
1AA	-ctem,	1E	no-	1A	-ctem,	1e	et	.	.
.	.	.	.	.	.	.	.	2c#i	.
=73	=73	=73	=73	=73	=73	=73	=73	=73	=73
1D	et	1D	-ctem,	2r	.	1.f	non	0d	-ctem,
.	.	.	.	2D	et	.	.	.	.
2D	non	2.A	et	2.F	non	.	.	.	.
2D	ta-	.	.	.	.	2f	ta-	.	.
.	.	4B-y	.	4G	.	.	.	.	.
=74	=74	=74	=74	=74	=74	=74	=74	=74	=74
2.C	-ce-	2c	.	4A	.	2.e	-ce-	0r	.
.	.	.	.	4B-y	.	.	.	.	.
.	.	2.A	no-	2.c	ta-	.	.	.	.
4BB-y	.	.	.	.	.	4d	.	.	.
2C	-at	.	.	.	.	2e	-at	.	.
.	.	4G	.	4B-y	.	.	.	.	.
[2D	pu-	4F	.	4A	.	[2f	pu-	.	.
.	.	4E	.	4G	.	.	.	.	.
=75	=75	=75	=75	=75	=75	=75	=75	=75	=75
2D]	.	1D	-ctem,	2F	.	2f]	.	1r	.
4C	.	.	.	1G	.	4e	.	.	.
4BB-y	.	.	.	.	.	4d	.	.	.
1AA	-pil-	1r	.	.	.	1c	-pil-	1a	et
.	.	.	.	2F#i	-ce-	.	.	.	.
=76	=76	=76	=76	=76	=76	=76	=76	=76	=76
1GG	-la	1.d	et	0G	-at	2B-y	-la	1.b-y	non
.	.	.	.	.	.	2.G	o-	.	.
1G	o-	.	.	.	.	.	.	.	.
.	.	.	.	.	.	4A	.	.	.
.	.	2e	non	.	.	4B-y	.	2b-y	ta-
.	.	.	.	.	.	4c	.	.	.
=77	=77	=77	=77	=77	=77	=77	=77	=77	=77
2.F	-cu-	2f	ta-	0r	.	4d	.	2.a	-ce-
.	.	.	.	.	.	4e	.	.	.
.	.	2.d	-ce	.	.	2.f	.	.	.
4E	.	.	.	.	.	.	.	4g	.
2F	.	.	.	.	.	.	.	2a	-at
.	.	4c	.	.	.	4e	.	.	.
[2G	.	4B-y	at	.	.	4d	.	[2b-y	pu-
.	.	4A	.	.	.	4c	.	.	.
=78	=78	=78	=78	=78	=78	=78	=78	=78	=78
2G]	.	1G	pu-	0r	.	2B-y	.	2b-]	.
4F	.	.	.	.	.	1c	-cu-	4a	-pil-
4E	.	.	.	.	.	.	.	4g	.
1D	-li	1d	-pil-	.	.	.	.	1f	-la,
.	.	.	.	.	.	2Bni	-li	.	.
=79	=79	=79	=79	=79	=79	=79	=79	=79	=79
1C	tu-	1e-X	-la	2r	.	1c	tu-	1r	.
.	.	.	.	2G	pu-	.	.	.	.
1GG	-i,	1d	o-	2G	-pil-	1B-y	-i,	1b-y	pu-
.	.	.	.	2D	-la	.	.	.	.
=80	=80	=80	=80	=80	=80	=80	=80	=80	=80
0r	.	2c	-cu-	2F	o-	2r	.	2a	-pil-
.	.	2B-y	-li	2G	.	1d	o-	2g	.
.	.	1A	tu-	2D	-cu-	.	.	1f	.
.	.	.	.	2F	-li	[2c	-cu-	.	.
=81	=81	=81	=81	=81	=81	=81	=81	=81	=81
2r	.	0G	-i,	2.C	tu-	2c]	.	0g	-la
2C	pu-	.	.	.	.	2.G	-li	.	.
.	.	.	.	4D	.	.	.	.	.
2C	-pil-	.	.	4E	.	.	.	.	.
.	.	.	.	4F	.	4A	.	.	.
2GG	-la	.	.	2G	.	4B-y	.	.	.
.	.	.	.	.	.	4c	.	.	.
=82	=82	=82	=82	=82	=82	=82	=82	=82	=82
2BB-y	o-	1r	.	2F	.	2d	.	2r	.
2C	-cu-	.	.	2E	.	2.c	tu-	2g	o-
1GG	-li	2r	.	1D	.	.	.	2g	-cu-
.	.	.	.	.	.	4Bni	.	.	.
.	.	2G	pu-	.	.	2Bni	.	2g	-li
=83	=83	=83	=83	=83	=83	=83	=83	=83	=83
[0C	tu-	2G	-pil-	0C	-i,	[0c	-i,	2e	tu-
.	.	2G	-la	.	.	.	.	4c	.
.	.	.	.	.	.	.	.	4d	.
.	.	2.c	o-	.	.	.	.	4e	.
.	.	.	.	.	.	.	.	4f	.
.	.	.	.	.	.	.	.	[2g	.
.	.	4B-y	.	.	.	.	.	.	.
=84	=84	=84	=84	=84	=84	=84	=84	=84	=84
0C]	.	2A	-cu-	1r	.	0c]	.	2g]	.
.	.	4G	-li	.	.	.	.	1f	.
.	.	4F	.	.	.	.	.	.	.
.	.	1G	tu-	2r	.	.	.	.	.
.	.	.	.	2G	o-	.	.	2e	.
=85	=85	=85	=85	=85	=85	=85	=85	=85	=85
1FF	-i,	1F	-i,	2A	-cu-	2r	.	0f	-i,
.	.	.	.	2c	-li	2c	qui-	.	.
1r	.	2r	.	2B-y	tu-	2d	-a	.	.
.	.	2F	qui-	2A	.	2f	in	.	.
=86	=86	=86	=86	=86	=86	=86	=86	=86	=86
1r	.	2G	-a	1G	-i,	2e	te	0r	.
.	.	2B-y	in-	.	.	2d	oc-	.	.
2r	.	4A	-te	1r	.	4c	.	.	.
.	.	2F	oc-	.	.	4B-y	.	.	.
2BB-y	qui-	.	.	.	.	2d	.	.	.
.	.	4G	-ci-	.	.	.	.	.	.
=87	=87	=87	=87	=87	=87	=87	=87	=87	=87
2C	-a	2A	-sus	2r	.	4c	.	0r	.
.	.	.	.	.	.	4B-y	.	.	.
2E-i	in	2G	est,	2c	qui-	4A	.	.	.
.	.	.	.	.	.	4G	.	.	.
2.D	te	2r	.	2d	-a	2.A	.	.	.
.	.	2F	qui-	2f	in	.	.	.	.
4D	oc-	.	.	.	.	4B-y	.	.	.
=88	=88	=88	=88	=88	=88	=88	=88	=88	=88
2C	-ci-	2G	-a	2e	te	2c	.	0r	.
2BB-y	-sus	2B-y	in	2d	oc-	2.F	-ci-	.	.
1F	est,	2A	te	4c	-ci-	.	.	.	.
.	.	.	.	4B-y	.	4G	.	.	.
.	.	2F	oc-	4A	-sus	4A	.	.	.
.	.	.	.	4G	.	4B-y	.	.	.
=89	=89	=89	=89	=89	=89	=89	=89	=89	=89
0r	.	2A	-ci-	2F	est,	2c	-sus	2r	.
.	.	2B-y	.	2f	in	2d	est,	2f	qui-
.	.	2.G	.	2e	te	2r	.	2g	-a
.	.	.	.	2d	oc-	2B-y	qui-	2b-y	in
.	.	4D	.	.	.	.	.	.	.
=90	=90	=90	=90	=90	=90	=90	=90	=90	=90
1r	.	2F	.	2c	-ci-	2c	-a	2a	te
.	.	2G	-sus	2B-y	-sus	2e-i	in	2g	oc-
2r	.	1D	est,	1A	est,	2d	te	2f	-ci-
2F	qui-	.	.	.	.	2f	oc-	2a	.
=91	=91	=91	=91	=91	=91	=91	=91	=91	=91
2G	-a	0r	.	1r	.	2e	-ci-	4g	.
.	.	.	.	.	.	.	.	4f	.
2B-y	in	.	.	.	.	1d	.	4e	.
.	.	.	.	.	.	.	.	4d	.
2.A	te	.	.	2r	.	.	.	1e	-sus
.	.	.	.	2A	qui-	2c#i	-sus	.	.
4G	oc-	.	.	.	.	.	.	.	.
=92	=92	=92	=92	=92	=92	=92	=92	=92	=92
2F	-ci-	1r	.	2A	-a	1d	est,	[0d	est
2G	-sus	.	.	2G	in	.	.	.	.
1D	est,	2r	.	2B-y	te	1r	.	.	.
.	.	2F	qui-	2A	oc-	.	.	.	.
=93	=93	=93	=93	=93	=93	=93	=93	=93	=93
2r	.	2G	-a	2G	-ci-	1d	oc-	0d_	.
2G	qui-	2B-y	in	2G	-sus	.	.	.	.
2F	-a	2.A	te	1D	est,	2.f	-ci-	.	.
[2D	in	.	.	.	.	.	.	.	.
.	.	4G	oc-	.	.	4e	.	.	.
=94	=94	=94	=94	=94	=94	=94	=94	=94	=94
2D]	.	2F	-ci-	1r	.	2d	.	0d_	.
1G	.	2G	-sus	.	.	4c	.	.	.
.	.	.	.	.	.	4B-y	.	.	.
.	.	1D	est,	1A	in	4A	.	.	.
.	.	.	.	.	.	4G	.	.	.
2F#i	.	.	.	.	.	2A	-sus	.	.
=95	=95	=95	=95	=95	=95	=95	=95	=95	=95
2G	te	2r	.	1.B-y	te	0G	est	0d]	.
2.GG	oc-	2G	in	.	.	.	.	.	.
.	.	2G	te	.	.	.	.	.	.
4AA	.	.	.	.	.	.	.	.	.
4BB-y	.	2D	oc-	2B-y	oc-	.	.	.	.
4C	.	.	.	.	.	.	.	.	.
=96	=96	=96	=96	=96	=96	=96	=96	=96	=96
4D	.	2F	-ci-	1A	-ci-	1r	.	1r	.
4E	.	.	.	.	.	.	.	.	.
1F	-ci-	2F	-sus	.	.	.	.	.	.
.	.	1C	est,	1G	-sus	1c	Sal-	1g	Sal-
2E	-sus	.	.	.	.	.	.	.	.
=97	=97	=97	=97	=97	=97	=97	=97	=97	=97
2F	est	0r	.	0F	est,	2.A	-va-	1.a	-va-
1F	Sal-	.	.	.	.	.	.	.	.
.	.	.	.	.	.	4B-y	.	.	.
.	.	.	.	.	.	2c	-tor	.	.
2D	-va-	.	.	.	.	[2d	Is-	2f	.
=98	=98	=98	=98	=98	=98	=98	=98	=98	=98
2E	.	0r	.	0r	.	4d]	.	2g	.
.	.	.	.	.	.	4c	.	.	.
2F	-tor	.	.	.	.	1c	-ra-	2a	-tor
1D	Is-	.	.	.	.	.	.	2.f	Is-
.	.	.	.	.	.	2Bni	.	.	.
.	.	.	.	.	.	.	.	4d	.
=99	=99	=99	=99	=99	=99	=99	=99	=99	=99
2C	.	2r	.	0r	.	2c	-el,	2e	.
2D	-ra-	1F	Sal-	.	.	2A	Sal-	2f	-ra-
1BB-y	-el,	.	.	.	.	2.B-y	-va-	1d	-el,
.	.	2D	-va-	.	.	.	.	.	.
.	.	.	.	.	.	4A	.	.	.
=100	=100	=100	=100	=100	=100	=100	=100	=100	=100
2r	.	2E	-tor	0r	.	2G	.	0r	.
1BB-y	Sal-	2F	Is-	.	.	2F	-tor	.	.
.	.	1D	-ra-	.	.	1B-y	Is-	.	.
2GG	-va-	.	.	.	.	.	.	.	.
=101	=101	=101	=101	=101	=101	=101	=101	=101	=101
2AA	-tor	2C	-el,	2r	.	2c	.	0r	.
2BB-y	Is-	1F	Is-	1B-y	Sal-	2d	.	.	.
1GG	-ra-	.	.	.	.	1B-y	-ra-	.	.
.	.	2E	-ra-	2G	-va-	.	.	.	.
=102	=102	=102	=102	=102	=102	=102	=102	=102	=102
2FF	-el,	0F	-el,	2A	-tor	2A	-el,	2r	.
1.BB-y	Sal-	.	.	2B-y	Is-	1d	Sal-	1f	Sal-
.	.	.	.	2F	.	.	.	.	.
.	.	.	.	[2B-y	.	2d	-va-	2d	-va-
=103	=103	=103	=103	=103	=103	=103	=103	=103	=103
2C	-va-	2r	.	4B-]	.	2c	-tor	2e	-tor
.	.	.	.	4A	.	.	.	.	.
2D	-tor	1F	Sal-	1A	-ra-	2A	Is-	2f	Is-
1BB-y	Is-	.	.	.	.	1B-y	-ra-	1d	.
.	.	2D	-va-	2G	.	.	.	.	.
=104	=104	=104	=104	=104	=104	=104	=104	=104	=104
2AA	.	2E	-tor	2.A	-el,	0c	-el,	2c	.
2FF	-ra-	2F	Is-	.	.	.	.	1f	.
.	.	.	.	8GL	.	.	.	.	.
.	.	.	.	8FJ	.	.	.	.	.
1C	-el,	2C	-ra-	1G	.	.	.	.	.
.	.	2c	-el,	.	.	.	.	2e	-ra-
=105	=105	=105	=105	=105	=105	=105	=105	=105	=105
2.D	Sal-	2B-y	Sal-	1.F	Sal-	2r	.	0f	-el,
.	.	2.A	-va-	.	.	4f	Is-	.	.
4C	-va-	.	.	.	.	4e	.	.	.
1BB-y	-tor	.	.	.	.	4d	.	.	.
.	.	4G	-tor	.	.	4c	.	.	.
.	.	2G	Is-	2D	-va-	[2d	.	.	.
=106	=106	=106	=106	=106	=106	=106	=106	=106	=106
2AA	Is-	1A	-ra-	2E	-tor	4d]	.	1r	.
.	.	.	.	.	.	4c	.	.	.
2FF	-ra-	.	.	2F	Is-	1c	-ra-	.	.
1GG	-el,	[1G	-el,	1D	-ra-	.	.	2r	.
.	.	.	.	.	.	2Bni	.	[2g	Sal-
=107	=107	=107	=107	=107	=107	=107	=107	=107	=107
2r	.	1G]	.	1C	-el,	1c	-el,	2g]	.
2C	Sal-	.	.	.	.	.	.	2e	-va-
2D	-va-	2.d	Sal-	2r	.	2A	Sal-	2f	-tor
2BB-y	-tor	.	.	2F	Sal-	2B-y	-va-	2d	Is-
.	.	4d	-va-	.	.	.	.	.	.
=108	=108	=108	=108	=108	=108	=108	=108	=108	=108
2C	Is-	2c	-tor	2E	-va-	2G	-tor	2e	-ra-
2.D	-ra-	2A	Is-	4D	.	1d	Is-	2f	-el,
.	.	.	.	4E	.	.	.	.	.
.	.	2B-y	-ra-	4F	.	.	.	2r	.
4E	.	.	.	4G	.	.	.	.	.
4F	.	4A	.	[2A	.	4c	.	[2cc	Sal-
4G	.	4G	.	.	.	4B-y	.	.	.
=109	=109	=109	=109	=109	=109	=109	=109	=109	=109
2A	-el,	4F	.	2A]	.	2c	.	2cc]	.
.	.	4G	.	.	.	.	.	.	.
2D	Sal-	2A	.	2F	-tor	2d	-ra-	2a	-va-
2.G	-va-	2G	-el,	2G	Is-	1B-y	-el,	2b-y	-tor
.	.	[2d	Is-	2B-y	-ra-	.	.	2g	Is-
4E	-tor	.	.	.	.	.	.	.	.
=110	=110	=110	=110	=110	=110	=110	=110	=110	=110
2F	Is-	4d]	.	2A	-el,	4f	Is-	2a	-ra-
.	.	4c	.	.	.	4e	.	.	.
2G	-ra-	2B-y	.	2G	Sal-	4d	.	2b-y	-el,
.	.	.	.	.	.	4e	.	.	.
2D	-el,	2A	-ra-	2.d	-va-	2f	.	2r	.
[2G	Sal-	2G	-el,	.	.	[2d	.	[2b-y	Sal-
.	.	.	.	4c	-tor	.	.	.	.
=111	=111	=111	=111	=111	=111	=111	=111	=111	=111
2G]	.	2r	.	2B-y	Is-	2d]	.	2b-]	.
2C	-va-	2G	Sal-	2c	-ra-	2e	-ra-	2g	-va-
2.F	-tor	2F	-va-	2.A	-el,	1f	-el,	2a	-tor
.	.	[2c	.	.	.	.	.	2f	Is-
4D	.	.	.	4B-y	.	.	.	.	.
=112	=112	=112	=112	=112	=112	=112	=112	=112	=112
2E	Is-	4c]	.	2G	.	2r	.	2g	-ra-
.	.	4B-y	.	.	.	.	.	.	.
2F	-ra-	2A	-tor	2F	Sal-	2f	Sal-	2a	-el,
2C	-el,	2G	Is-	2.c	-va-	2e	-va-	2r	.
[2F	Sal-	2A	-ra-	.	.	[2c	-tor	[2a	Sal-
.	.	.	.	4B-y	-tor	.	.	.	.
=113	=113	=113	=113	=113	=113	=113	=113	=113	=113
2F]	.	1F	-el,	2A	Is-	4c]	.	2a]	.
.	.	.	.	.	.	4A	.	.	.
2D	-va-	.	.	2B-y	-ra-	1d	Is-	2f	-va-
1E	-tor	2r	.	1G	-el,	.	.	2g	-tor
.	.	2G	Sal-	.	.	2c	.	2e	Is-
=114	=114	=114	=114	=114	=114	=114	=114	=114	=114
2D	Is-	2A	-va-	2r	.	2d	.	2f	-ra-
2G	-ra-	2G	-tor	2B-y	Sal-	2e	.	2g	-el,
2F	-el,	2c	Is-	2A	-va-	2f	.	2r	.
2G	Sal-	2B-y	-ra-	[2G	-tor	2d	-ra-	[2g	Sal-
=115	=115	=115	=115	=115	=115	=115	=115	=115	=115
2.C	-va-	2.c	-el,	4G]	.	1e	-el,	2g]	.
.	.	.	.	4F	.	.	.	.	.
.	.	.	.	2G	.	.	.	2e	-va-
4C	-tor	4B-y	.	.	.	.	.	.	.
2D	Is-	2A	.	2.F	Is-	2.d	Sal-	2f	-tor
2BB-y	-ra-	2B-y	Sal-	.	.	.	.	2d	Is-
.	.	.	.	4F	-ra-	4d	.	.	.
=116	=116	=116	=116	=116	=116	=116	=116	=116	=116
2C	.	2G	-va-	2E	-el,	2c	-va-	2e	-ra-
2D	.	2F	-tor	2.D	Sal-	2A	-tor	2f	-el,
2GG	-el,	2G	Is-	.	.	2B-y	Is-	2r	.
.	.	.	.	4E	.	.	.	.	.
[2D	Sal-	2D	.	4F	.	2A	.	[2f	Sal-
.	.	.	.	4G	.	.	.	.	.
=117	=117	=117	=117	=117	=117	=117	=117	=117	=117
2D]	.	1F	-ra-	2A	.	1d	-ra-	2f]	.
2BB-y	-va-	.	.	2B-y	-va-	.	.	2d	-va-
2C	-tor	1E	-el,	2G	-tor	[1c	-el,	2e	.
[2AA	Is-	.	.	[2A	Is-	.	.	2c	-tor
=118	=118	=118	=118	=118	=118	=118	=118	=118	=118
4AA]	.	2r	.	4A]	.	1c]	.	2.cc	Is-
4BB-y	.	.	.	4B-y	-ra-	.	.	.	.
2C	.	2E	Sal-	2G	-el,	.	.	.	.
.	.	.	.	.	.	.	.	4b-y	.
2D	.	2F	-va-	2F	Sal-	2r	.	2a	.
2GG	-ra-	2G	-tor	2B-y	-va-	2G	Is-	[2g	.
=119	=119	=119	=119	=119	=119	=119	=119	=119	=119
1D	-el,	2D	Is-	2A	-tor	2A	.	4g]	.
.	.	.	.	.	.	.	.	4f	.
.	.	2F	-ra-	2F	Is-	2B-y	-ra-	1f	-ra-
1C	.	4E	-el,	1G	-ra-	1c	-el,	.	.
.	.	4C	.	.	.	.	.	.	.
.	.	[2c	Sal-	.	.	.	.	2e	.
=120	=120	=120	=120	=120	=120	=120	=120	=120	=120
2.D	Sal-	4c]	.	1.F	-el,	2r	.	0f	-el,
.	.	4B-y	.	.	.	.	.	.	.
.	.	2.A	-va-	.	.	4f	Is-	.	.
4C	-va-	.	.	.	.	4e	.	.	.
1BB-y	-tor	.	.	.	.	4d	.	.	.
.	.	4G	-tor	.	.	4c	.	.	.
.	.	2G	Is-	2D	Is-	[2d	.	.	.
=121	=121	=121	=121	=121	=121	=121	=121	=121	=121
2AA	Is-	1A	-ra-	2E	.	4d]	.	1r	.
.	.	.	.	.	.	4c	.	.	.
2FF	-ra-	.	.	2F	.	1c	-ra-	.	.
1GG	-el,	[1G	-el,	1D	-ra-	.	.	2r	.
.	.	.	.	.	.	2Bni	.	[2g	Sal-
=122	=122	=122	=122	=122	=122	=122	=122	=122	=122
2r	.	1G]	.	1C	-el,	1c	-el,	2g]	.
2C	Sal-	.	.	.	.	.	.	2e	-va-
2D	-va-	2.d	Sal-	2r	.	2A	Sal-	2f	-tor
2BB-y	.	.	.	2F	Sal-	2B-y	-va-	2d	Is-
.	.	4d	.	.	.	.	.	.	.
=123	=123	=123	=123	=123	=123	=123	=123	=123	=123
2C	-tor	2c	-va-	2E	-va-	2G	-tor	2e	-ra-
2.D	Is-	2A	-tor	4D	.	1d	Is-	2f	-el,
.	.	.	.	4E	.	.	.	.	.
.	.	2B-y	Is-	4F	.	.	.	2r	.
4E	.	.	.	4G	.	.	.	.	.
4F	-ra-	4A	.	[2A	.	4c	.	[2cc	Sal-
4G	.	4G	.	.	.	4B-y	.	.	.
=124	=124	=124	=124	=124	=124	=124	=124	=124	=124
2A	-el,	4F	.	2A]	.	2c	.	2cc]	.
.	.	4G	.	.	.	.	.	.	.
2D	Sal-	2A	-ra-	2F	-tor	2d	-ra-	2a	-va-
2.G	-va-	2G	-el,	2G	Is-	1B-y	-el,	2b-y	-tor
.	.	[2d	Is-	2B-y	-ra-	.	.	2g	Is-
4E	-tor	.	.	.	.	.	.	.	.
=125	=125	=125	=125	=125	=125	=125	=125	=125	=125
2F	Is-	4d]	.	2A	-el,	2f	Is-	2a	-ra-
.	.	4c	.	.	.	.	.	.	.
2G	-ra-	2B-y	.	2G	Sal-	4d	.	2b-y	-el
.	.	.	.	.	.	4e	.	.	.
2D	-el,	2A	-ra-	2.d	-va-	2f	.	2r	.
[2G	Sal-	2G	-el,	.	.	[2d	.	[2b-y	Sal-
.	.	.	.	4c	-tor	.	.	.	.
=126	=126	=126	=126	=126	=126	=126	=126	=126	=126
2G]	.	2r	.	2B-y	Is-	2d]	.	2b-]	.
2C	-va-	2G	Sal-	2c	-ra-	2e	-ra-	2g	-va-
2.F	-tor	2F	-va-	2.A	.	1f	-el,	2a	-tor
.	.	[2c	.	.	.	.	.	2f	Is-
4D	.	.	.	4B-y	.	.	.	.	.
=127	=127	=127	=127	=127	=127	=127	=127	=127	=127
2E	Is-	4c]	.	2G	-el,	2r	.	2g	-ra-
.	.	4B-y	.	.	.	.	.	.	.
2F	-ra-	2A	-tor	2F	Sal-	2f	Sal-	2a	-el,
2C	-el,	2G	Is-	2.c	-va-	2e	-va-	2r	.
[2F	Sal-	2A	-ra-	.	.	[2c	-tor	[2a	Sal-
.	.	.	.	4B-y	-tor	.	.	.	.
=128	=128	=128	=128	=128	=128	=128	=128	=128	=128
2F]	.	1F	-el,	2A	Is-	4c]	.	2a]	.
.	.	.	.	.	.	4A	.	.	.
2D	-va-	.	.	2B-y	-ra-	1d	Is-	2f	-va-
1E	-tor	2r	.	1G	-el,	.	.	2g	-tor
.	.	2G	Sal-	.	.	2c	.	2e	Is-
=129	=129	=129	=129	=129	=129	=129	=129	=129	=129
2D	Is-	2A	-va-	2r	.	2d	.	2f	-ra-
2G	-ra-	2G	-tor	2B-y	Sal-	2e	.	2g	-el,
2F	-el,	2c	Is-	2A	-va-	2f	.	2r	.
2G	Sal-	2B-y	-ra-	[2G	.	2d	-ra-	[2g	Sal-
=130	=130	=130	=130	=130	=130	=130	=130	=130	=130
2.C	-va-	2.c	-el,	4G]	.	1e	-el,	2g]	.
.	.	.	.	4F	.	.	.	.	.
.	.	.	.	2G	-tor,	.	.	2e	-va-
4C	-tor	4B-y	.	.	.	.	.	.	.
2D	Is-	2A	.	2.F	Is-	2.d	Sal-	2f	-tor
2BB-y	.	2B-y	Sal-	.	.	.	.	2d	Is-
.	.	.	.	4F	-ra-	4d	.	.	.
=131	=131	=131	=131	=131	=131	=131	=131	=131	=131
2C	.	2G	-va-	2E	-el,	2c	-va-	2e	-ra-
2D	-ra-	2F	-tor	2.D	Sal-	2A	-tor	2f	-el,
2GG	-el,	2G	Is-	.	.	2B-y	Is-	2r	.
.	.	.	.	4E	.	.	.	.	.
[2D	Sal-	2D	.	4F	.	2A	.	[2f	Sal-
.	.	.	.	4G	.	.	.	.	.
=132	=132	=132	=132	=132	=132	=132	=132	=132	=132
2D]	.	1F	-ra-	2A	.	1d	-ra-	2f]	.
2BB-y	-va-	.	.	2B-y	-va-	.	.	2d	-va-
2C	-tor	1E	-el,	2G	-tor	[1c	-el,	2e	.
[2AA	Is-	.	.	[2A	Is-	.	.	2c	-tor
=133	=133	=133	=133	=133	=133	=133	=133	=133	=133
4AA]	.	2r	.	4A]	.	1c]	.	2.cc	Is-
4BB-y	.	.	.	4B-y	-ra-	.	.	.	.
2C	.	2E	Sal-	2G	-el,	.	.	.	.
.	.	.	.	.	.	.	.	4b-y	.
2D	.	2F	-va-	2F	Sal-	2r	.	2a	.
2GG	.	2G	-tor	2B-y	-va-	2G	Sal-	[2g	.
=134	=134	=134	=134	=134	=134	=134	=134	=134	=134
1D	-ra-	2D	Is-	2A	-tor	2A	-va-	4g]	.
.	.	.	.	.	.	.	.	4f	.
.	.	2F	-ra-	2F	Is-	2B-y	.	1f	-ra-
1C	.	2E	-el,	1G	-ra-	1c	-tor	.	.
.	.	[2C	Is-	.	.	.	.	2e	.
=135	=135	=135	=135	=135	=135	=135	=135	=135	=135
[0FFl	-el.	2C]	.	[0Fl	-el.	2c	Is-	[0fl	-el.
.	.	2.c	-ra-	.	.	1A	.	.	.
.	.	4B-y	.	.	.	.	.	.	.
.	.	4A	.	.	.	2F	-ra-	.	.
.	.	4G	.	.	.	.	.	.	.
=136	=136	=136	=136	=136	=136	=136	=136	=136	=136
00FF]	.	00Al	-el.	00F]	.	00cl	-el.	00f]	.
==	==	==	==	==	==	==	==	==	==
*-	*-	*-	*-	*-	*-	*-	*-	*-	*-
!!!system-decoration: [*]
!!!RDF**kern: i = editorial accidental
!!!RDF**kern: l = terminal long
!!!ENC: Benjamin Ory
!!!END: 2021/1/9
!!!EED: Benjamin Ory
!!!EEV: 2021/05/11
!!!YEC: Copyright 2021 Benjamin Ory, All Rights Reserved
!!!ONB: Translated from MusicXML on 2021/05/11
